svgs/thin/9.svg

<svg xmlns="http://www.w3.org/2000/svg" viewBox="0 0 320 512"><!--! Font Awesome Pro 6.3.0 by @fontawesome - https://fontawesome.com License - https://fontawesome.com/license (Commercial License) Copyright 2023 Fonticons, Inc. --><path d="M320 192c0-88.22-71.78-160-160-160s-160 71.78-160 160S71.78 352 160 352c20.99 0 40.94-4.311 59.33-11.7l-121.1 126.2c-3.062 3.188-2.938 8.25 .25 11.31C100 479.3 101.1 480 104 480c2.094 0 4.188-.8125 5.781-2.469C280.2 300 320 273.9 320 192zM16 192c0-79.41 64.59-144 144-144s144 64.59 144 144s-64.59 144-144 144S16 271.4 16 192z"/></svg>

<svg xmlns="http://www.w3.org/2000/svg" viewBox="0 0 320 512"><!-- Font Awesome Pro 6.0.0-alpha2 by @fontawesome - https://fontawesome.com License - https://fontawesome.com/license (Commercial License) --><path d="M320 192C320 103.781 248.219 32 160 32S0 103.781 0 192S71.781 352 160 352C180.994 352 200.943 347.689 219.33 340.305L98.219 466.469C95.156 469.656 95.281 474.719 98.469 477.781C100 479.25 102 480 104 480C106.094 480 108.188 479.188 109.781 477.531C280.164 300.039 320 273.901 320 192ZM16 192C16 112.594 80.594 48 160 48S304 112.594 304 192S239.406 336 160 336S16 271.406 16 192Z"/></svg>
